build/image/pictureSVG/logo-mobile.svg

<svg xmlns="http://www.w3.org/2000/svg" width="86pt" height="35pt" viewBox="0 0 86 35" fill-rule="evenodd"><path d="M18 3.1c0 2.6.3 3 2.3 2.7 1.6-.2 2.3-1.1 2.5-3.1.3-2.3 0-2.7-2.2-2.7S18 .4 18 3.1zM54 3c-1.2.7-1.4 2.5-1 9.5.3 4.8.2 8.9-.2 9.2-.5.2-.8-2.4-.8-5.9C52 7.5 51.2 5 48.8 5c-1.8 0-2 .6-1.6 5 .2 4.2 0 5-1.4 5-1.2 0-1.8-.8-1.8-2.4C44 7.4 42.8 4 40.9 4c-1.7 0-1.9.9-2.1 9.7-.1 5.4-.3 8-.5 5.8-.5-4.6-1.5-5.5-6-5.5-3.2 0-3.3-.2-3.3-4 0-3.3.3-4 2-4 1.1 0 2 .4 2 1 0 .5 1.1 1 2.5 1 3 0 3.3-2.5.5-4-2.4-1.3-8.5-.3-10.5 1.6-.9.9-1.1 2.7-.8 5.6.3 2.4.7 4.5.9 4.7.2.2 2.1.7 4.1 1 3.7.6 3.8.7 3.8 5.1 0 3.3-.4 4.5-1.5 4.5-.9 0-1.6-1.1-1.8-2.8-.5-4.3-3.7-3.2-3.7 1.3 0 3.3.2 3.5 3.9 3.8 2.8.2 4.7-.3 6.8-1.8 2.3-1.7 2.8-1.8 2.8-.5 0 .8.9 1.5 2 1.5 1.7 0 2-.7 2-5s.3-5 2-5 2 .7 2 4.9c0 5.5 1 6.9 3.4 4.5.9-.9 1.6-1.1 1.6-.4 0 .6 1 1 2.3.8 1.6-.2 2.3-1.1 2.5-3.3.2-1.6.9-3.7 1.6-4.7 1.2-1.7 1.5-1.4 3.4 3.2 1.5 3.7 2.6 5 4.1 5 2.7 0 2.6-.6-.6-8.7l-2.7-6.7 2.7-5c1.5-2.7 2.5-5.1 2.3-5.4-1.5-1.4-5 1.7-7.3 6.3-1.5 3-3 5.2-3.5 4.9-.4-.3-.8-2.7-.8-5.4 0-5.2-.7-6.3-3-5zM12.2 5.2c-.7.7-1.2 1.7-1.2 2.2 0 .6-.5 2.9-1.1 5.1l-1.1 4L6.6 11C5 7 3.8 5.4 2.2 5.2 0 4.9 0 5.1 0 16.5 0 28 0 28.1 2.3 27.8c2-.3 2.2-.9 2.1-5.3v-5l1.4 3.7c1.6 4.1 3.5 4.8 5.1 2 .8-1.4 1-1 1.1 2.1 0 3.4.3 3.8 2.3 3.5 2.4-.3 2.4-.7 1.9-18.8-.2-6.1-1.3-7.5-4-4.8zm61.2.2c-4.1 1.8-4.6 3.4-3.8 13.8.6 7.4 1 8.8 2.3 8.6 1.1-.2 1.7-1.7 1.9-5.1.3-4.5.5-4.7 3.3-4.7s2.9.1 2.9 5c0 2.7.2 5 .4 5 2.6 0 3.6-1.6 3.6-6 0-3 .5-5 1.3-5.3 1-.4 1-.7 0-1.8-.7-.7-1.3-2.7-1.3-4.5 0-1.8-.3-3.9-.6-4.8-.8-2-5.7-2-10-.2zm6.6 6.2c0 3.1-.3 3.4-3 3.4-2.1 0-3-.5-3.1-1.8-.2-3.2.2-4.7 1.8-5.9 2.3-1.8 4.3.2 4.3 4.3zM19.7 7.7c-.9.8-.9 15-.1 18.1 1 3.4 4.4 2.9 4.4-.6 0-12.9-1.8-20.1-4.3-17.5zm-7.8 24.4c-4.2.4-8.5 1.1-9.5 1.8-1.4.8 7.8 1 37.8.9 36-.3 42.3-.6 40.6-2.4-.8-.7-59.8-1-68.9-.3z"/></svg>

<?xml version="1.0" encoding="UTF-8" standalone="yes"?>
<!-- Created with sK1/UniConvertor (http://sk1project.org/) -->
<svg xmlns="http://www.w3.org/2000/svg" xmlns:xlink="http://www.w3.org/1999/xlink"
  width="86pt" height="35pt" viewBox="0 0 86 35"
  fill-rule="evenodd">
<g>
<g>
<path style="stroke:none; fill:#000000" d="M 18 3.1C 18 5.7 18.3 6.1 20.3 5.8C 21.9 5.6 22.6 4.7 22.8 2.7C 23.1 0.400002 22.8 0 20.6 0C 18.4 0 18 0.400002 18 3.1z"/>
<path style="stroke:none; fill:#000000" d="M 54 3C 52.8 3.7 52.6 5.5 53 12.5C 53.3 17.3 53.2 21.4 52.8 21.7C 52.3 21.9 52 19.3 52 15.8C 52 7.5 51.2 5 48.8 5C 47 5 46.8 5.6 47.2 10C 47.4 14.2 47.2 15 45.8 15C 44.6 15 44 14.2 44 12.6C 44 7.4 42.8 4 40.9 4C 39.2 4 39 4.9 38.8 13.7C 38.7 19.1 38.5 21.7 38.3 19.5C 37.8 14.9 36.8 14 32.3 14C 29.1 14 29 13.8 29 10C 29 6.7 29.3 6 31 6C 32.1 6 33 6.4 33 7C 33 7.5 34.1 8 35.5 8C 38.5 8 38.8 5.5 36 4C 33.6 2.7 27.5 3.7 25.5 5.6C 24.6 6.5 24.4 8.3 24.7 11.2C 25 13.6 25.4 15.7 25.6 15.9C 25.8 16.1 27.7 16.6 29.7 16.9C 33.4 17.5 33.5 17.6 33.5 22C 33.5 25.3 33.1 26.5 32 26.5C 31.1 26.5 30.4 25.4 30.2 23.7C 29.7 19.4 26.5 20.5 26.5 25C 26.5 28.3 26.7 28.5 30.4 28.8C 33.2 29 35.1 28.5 37.2 27C 39.5 25.3 40 25.2 40 26.5C 40 27.3 40.9 28 42 28C 43.7 28 44 27.3 44 23C 44 18.7 44.3 18 46 18C 47.7 18 48 18.7 48 22.9C 48 28.4 49 29.8 51.4 27.4C 52.3 26.5 53 26.3 53 27C 53 27.6 54 28 55.3 27.8C 56.9 27.6 57.6 26.7 57.8 24.5C 58 22.9 58.7 20.8 59.4 19.8C 60.6 18.1 60.9 18.4 62.8 23C 64.3 26.7 65.4 28 66.9 28C 69.6 28 69.5 27.4 66.3 19.3L 63.6 12.6L 66.3 7.6C 67.8 4.9 68.8 2.5 68.6 2.2C 67.1 0.799999 63.6 3.9 61.3 8.5C 59.8 11.5 58.3 13.7 57.8 13.4C 57.4 13.1 57 10.7 57 8C 57 2.8 56.3 1.7 54 3z"/>
<path style="stroke:none; fill:#000000" d="M 12.2 5.2C 11.5 5.9 11 6.9 11 7.4C 11 8 10.5 10.3 9.9 12.5L 8.8 16.5L 6.6 11C 5 7 3.8 5.4 2.2 5.2C -7.15256e-07 4.9 -7.15256e-07 5.1 -7.15256e-07 16.5C -7.15256e-07 28 -7.15256e-07 28.1 2.3 27.8C 4.3 27.5 4.5 26.9 4.4 22.5L 4.4 17.5L 5.8 21.2C 7.4 25.3 9.3 26 10.9 23.2C 11.7 21.8 11.9 22.2 12 25.3C 12 28.7 12.3 29.1 14.3 28.8C 16.7 28.5 16.7 28.1 16.2 10C 16 3.9 14.9 2.5 12.2 5.2z"/>
<path style="stroke:none; fill:#000000" d="M 73.4 5.4C 69.3 7.2 68.8 8.8 69.6 19.2C 70.2 26.6 70.6 28 71.9 27.8C 73 27.6 73.6 26.1 73.8 22.7C 74.1 18.2 74.3 18 77.1 18C 79.9 18 80 18.1 80 23C 80 25.7 80.2 28 80.4 28C 83 28 84 26.4 84 22C 84 19 84.5 17 85.3 16.7C 86.3 16.3 86.3 16 85.3 14.9C 84.6 14.2 84 12.2 84 10.4C 84 8.6 83.7 6.5 83.4 5.6C 82.6 3.6 77.7 3.6 73.4 5.4zM 80 11.6C 80 14.7 79.7 15 77 15C 74.9 15 74 14.5 73.9 13.2C 73.7 10 74.1 8.5 75.7 7.3C 78 5.5 80 7.5 80 11.6z"/>
<path style="stroke:none; fill:#000000" d="M 19.7 7.7C 18.8 8.5 18.8 22.7 19.6 25.8C 20.6 29.2 24 28.7 24 25.2C 24 12.3 22.2 5.1 19.7 7.7z"/>
<path style="stroke:none; fill:#000000" d="M 11.9 32.1C 7.7 32.5 3.4 33.2 2.4 33.9C 1 34.7 10.2 34.9 40.2 34.8C 76.2 34.5 82.5 34.2 80.8 32.4C 80 31.7 21 31.4 11.9 32.1z"/>
</g>
</g>
</svg>
